images/5702273.svg

<?xml version="1.0" encoding="UTF-8"?>
<svg xmlns="http://www.w3.org/2000/svg" xmlns:xlink="http://www.w3.org/1999/xlink" width="300pt" height="300pt" viewBox="0 0 300 300" version="1.1">
<defs>
<g>
<symbol overflow="visible" id="glyph0-0">
<path style="stroke:none;" d="M 0.640625 2.296875 L 0.640625 -9.171875 L 7.140625 -9.171875 L 7.140625 2.296875 Z M 1.375 1.578125 L 6.421875 1.578125 L 6.421875 -8.4375 L 1.375 -8.4375 Z M 1.375 1.578125 "/>
</symbol>
<symbol overflow="visible" id="glyph0-1">
<path style="stroke:none;" d="M 1.28125 -9.484375 L 3 -9.484375 L 7.203125 -1.546875 L 7.203125 -9.484375 L 8.453125 -9.484375 L 8.453125 0 L 6.71875 0 L 2.515625 -7.921875 L 2.515625 0 L 1.28125 0 Z M 1.28125 -9.484375 "/>
</symbol>
<symbol overflow="visible" id="glyph0-2">
<path style="stroke:none;" d="M 1.28125 -9.484375 L 2.5625 -9.484375 L 2.5625 -5.59375 L 7.21875 -5.59375 L 7.21875 -9.484375 L 8.5 -9.484375 L 8.5 0 L 7.21875 0 L 7.21875 -4.515625 L 2.5625 -4.515625 L 2.5625 0 L 1.28125 0 Z M 1.28125 -9.484375 "/>
</symbol>
<symbol overflow="visible" id="glyph0-3">
<path style="stroke:none;" d="M 8.375 -8.75 L 8.375 -7.390625 C 7.9375 -7.796875 7.472656 -8.097656 6.984375 -8.296875 C 6.503906 -8.492188 5.988281 -8.59375 5.4375 -8.59375 C 4.351562 -8.59375 3.519531 -8.257812 2.9375 -7.59375 C 2.363281 -6.9375 2.078125 -5.984375 2.078125 -4.734375 C 2.078125 -3.484375 2.363281 -2.523438 2.9375 -1.859375 C 3.519531 -1.203125 4.351562 -0.875 5.4375 -0.875 C 5.988281 -0.875 6.503906 -0.972656 6.984375 -1.171875 C 7.472656 -1.367188 7.9375 -1.664062 8.375 -2.0625 L 8.375 -0.734375 C 7.925781 -0.421875 7.453125 -0.1875 6.953125 -0.03125 C 6.453125 0.113281 5.921875 0.1875 5.359375 0.1875 C 3.921875 0.1875 2.789062 -0.25 1.96875 -1.125 C 1.144531 -2.007812 0.734375 -3.210938 0.734375 -4.734375 C 0.734375 -6.253906 1.144531 -7.453125 1.96875 -8.328125 C 2.789062 -9.210938 3.921875 -9.65625 5.359375 -9.65625 C 5.921875 -9.65625 6.453125 -9.578125 6.953125 -9.421875 C 7.460938 -9.273438 7.9375 -9.050781 8.375 -8.75 Z M 8.375 -8.75 "/>
</symbol>
<symbol overflow="visible" id="glyph0-4">
<path style="stroke:none;" d="M 1.21875 -9.875 L 2.390625 -9.875 L 2.390625 0 L 1.21875 0 Z M 1.21875 -9.875 "/>
</symbol>
<symbol overflow="visible" id="glyph0-5">
<path style="stroke:none;" d="M 5.125 -8.609375 C 4.1875 -8.609375 3.441406 -8.257812 2.890625 -7.5625 C 2.347656 -6.875 2.078125 -5.929688 2.078125 -4.734375 C 2.078125 -3.535156 2.347656 -2.585938 2.890625 -1.890625 C 3.441406 -1.203125 4.1875 -0.859375 5.125 -0.859375 C 6.050781 -0.859375 6.785156 -1.203125 7.328125 -1.890625 C 7.878906 -2.585938 8.15625 -3.535156 8.15625 -4.734375 C 8.15625 -5.929688 7.878906 -6.875 7.328125 -7.5625 C 6.785156 -8.257812 6.050781 -8.609375 5.125 -8.609375 Z M 5.125 -9.65625 C 6.445312 -9.65625 7.503906 -9.207031 8.296875 -8.3125 C 9.097656 -7.414062 9.5 -6.222656 9.5 -4.734375 C 9.5 -3.234375 9.097656 -2.035156 8.296875 -1.140625 C 7.503906 -0.253906 6.445312 0.1875 5.125 0.1875 C 3.789062 0.1875 2.722656 -0.253906 1.921875 -1.140625 C 1.128906 -2.035156 0.734375 -3.234375 0.734375 -4.734375 C 0.734375 -6.222656 1.128906 -7.414062 1.921875 -8.3125 C 2.722656 -9.207031 3.789062 -9.65625 5.125 -9.65625 Z M 5.125 -9.65625 "/>
</symbol>
<symbol overflow="visible" id="glyph1-0">
<path style="stroke:none;" d="M 0.546875 1.9375 L 0.546875 -7.75 L 6.046875 -7.75 L 6.046875 1.9375 Z M 1.171875 1.328125 L 5.4375 1.328125 L 5.4375 -7.140625 L 1.171875 -7.140625 Z M 1.171875 1.328125 "/>
</symbol>
<symbol overflow="visible" id="glyph1-1">
<path style="stroke:none;" d="M 2.109375 -0.90625 L 5.890625 -0.90625 L 5.890625 0 L 0.8125 0 L 0.8125 -0.90625 C 1.21875 -1.332031 1.773438 -1.90625 2.484375 -2.625 C 3.203125 -3.34375 3.648438 -3.804688 3.828125 -4.015625 C 4.171875 -4.410156 4.410156 -4.742188 4.546875 -5.015625 C 4.691406 -5.285156 4.765625 -5.550781 4.765625 -5.8125 C 4.765625 -6.238281 4.613281 -6.582031 4.3125 -6.84375 C 4.019531 -7.113281 3.628906 -7.25 3.140625 -7.25 C 2.804688 -7.25 2.445312 -7.1875 2.0625 -7.0625 C 1.6875 -6.945312 1.285156 -6.769531 0.859375 -6.53125 L 0.859375 -7.625 C 1.296875 -7.800781 1.703125 -7.9375 2.078125 -8.03125 C 2.460938 -8.125 2.8125 -8.171875 3.125 -8.171875 C 3.957031 -8.171875 4.617188 -7.960938 5.109375 -7.546875 C 5.609375 -7.128906 5.859375 -6.570312 5.859375 -5.875 C 5.859375 -5.539062 5.796875 -5.226562 5.671875 -4.9375 C 5.546875 -4.644531 5.320312 -4.296875 5 -3.890625 C 4.90625 -3.785156 4.617188 -3.484375 4.140625 -2.984375 C 3.660156 -2.492188 2.984375 -1.800781 2.109375 -0.90625 Z M 2.109375 -0.90625 "/>
</symbol>
</g>
</defs>
<g id="surface53021">
<rect x="0" y="0" width="300" height="300" style="fill:rgb(100%,100%,100%);fill-opacity:1;stroke:none;"/>
<path style="fill:none;stroke-width:1.2;stroke-linecap:butt;stroke-linejoin:miter;stroke:rgb(0%,0%,0%);stroke-opacity:1;stroke-miterlimit:10;" d="M 39.578125 183.3125 L 60.503906 158.058594 "/>
<path style="fill:none;stroke-width:1.2;stroke-linecap:butt;stroke-linejoin:miter;stroke:rgb(0%,0%,0%);stroke-opacity:1;stroke-miterlimit:10;" d="M 60.503906 158.058594 L 81.429688 132.804688 "/>
<path style="fill:none;stroke-width:1.2;stroke-linecap:butt;stroke-linejoin:miter;stroke:rgb(0%,0%,0%);stroke-opacity:1;stroke-miterlimit:10;" d="M 60.503906 158.058594 L 35.25 137.132812 "/>
<path style="fill:none;stroke-width:1.2;stroke-linecap:butt;stroke-linejoin:miter;stroke:rgb(0%,0%,0%);stroke-opacity:1;stroke-miterlimit:10;" d="M 60.503906 158.058594 L 73.128906 168.523438 "/>
<path style="fill:none;stroke-width:1.2;stroke-linecap:butt;stroke-linejoin:miter;stroke:rgb(0%,0%,100%);stroke-opacity:1;stroke-miterlimit:10;" d="M 73.128906 168.523438 L 85.753906 178.984375 "/>
<path style="fill:none;stroke-width:1.2;stroke-linecap:butt;stroke-linejoin:miter;stroke:rgb(0%,0%,100%);stroke-opacity:1;stroke-miterlimit:10;" d="M 85.753906 178.984375 L 101.128906 173.28125 "/>
<path style="fill:none;stroke-width:1.2;stroke-linecap:butt;stroke-linejoin:miter;stroke:rgb(0%,0%,0%);stroke-opacity:1;stroke-miterlimit:10;" d="M 101.128906 173.28125 L 116.503906 167.578125 "/>
<path style=" stroke:none;fill-rule:nonzero;fill:rgb(100%,100%,100%);fill-opacity:1;" d="M 75.753906 170.984375 L 95.753906 170.984375 L 95.753906 186.984375 L 75.753906 186.984375 Z M 75.753906 170.984375 "/>
<g style="fill:rgb(0%,0%,100%);fill-opacity:1;">
  <use xlink:href="#glyph0-1" x="75.753906" y="183.360352"/>
  <use xlink:href="#glyph0-2" x="85.723633" y="183.360352"/>
</g>
<path style="fill:none;stroke-width:1.2;stroke-linecap:butt;stroke-linejoin:miter;stroke:rgb(0%,0%,0%);stroke-opacity:1;stroke-miterlimit:10;" d="M 116.503906 167.578125 L 141.753906 188.503906 "/>
<path style="fill:none;stroke-width:1.2;stroke-linecap:butt;stroke-linejoin:miter;stroke:rgb(0%,0%,0%);stroke-opacity:1;stroke-miterlimit:10;" d="M 141.753906 188.503906 L 172.503906 177.097656 "/>
<path style="fill:none;stroke-width:1.2;stroke-linecap:butt;stroke-linejoin:miter;stroke:rgb(0%,0%,0%);stroke-opacity:1;stroke-miterlimit:10;" d="M 141.753906 188.503906 L 139.007812 204.671875 "/>
<path style="fill:none;stroke-width:1.2;stroke-linecap:butt;stroke-linejoin:miter;stroke:rgb(100%,0%,0%);stroke-opacity:1;stroke-miterlimit:10;" d="M 139.007812 204.671875 L 136.257812 220.835938 "/>
<path style="fill:none;stroke-width:1.2;stroke-linecap:butt;stroke-linejoin:miter;stroke:rgb(0%,0%,0%);stroke-opacity:1;stroke-miterlimit:10;" d="M 172.503906 177.097656 L 178 144.765625 "/>
<path style="fill:none;stroke-width:1.2;stroke-linecap:butt;stroke-linejoin:miter;stroke:rgb(0%,0%,0%);stroke-opacity:1;stroke-miterlimit:10;" d="M 180.660156 175.15625 L 185.058594 149.292969 "/>
<path style="fill:none;stroke-width:1.2;stroke-linecap:butt;stroke-linejoin:miter;stroke:rgb(0%,0%,0%);stroke-opacity:1;stroke-miterlimit:10;" d="M 197.757812 198.023438 L 172.503906 177.097656 "/>
<path style="fill:none;stroke-width:1.2;stroke-linecap:butt;stroke-linejoin:miter;stroke:rgb(0%,0%,0%);stroke-opacity:1;stroke-miterlimit:10;" d="M 178 144.765625 L 208.75 133.359375 "/>
<path style="fill:none;stroke-width:1.2;stroke-linecap:butt;stroke-linejoin:miter;stroke:rgb(0%,0%,0%);stroke-opacity:1;stroke-miterlimit:10;" d="M 208.75 133.359375 L 234 154.285156 "/>
<path style="fill:none;stroke-width:1.2;stroke-linecap:butt;stroke-linejoin:miter;stroke:rgb(0%,0%,0%);stroke-opacity:1;stroke-miterlimit:10;" d="M 206.351562 141.394531 L 226.550781 158.132812 "/>
<path style="fill:none;stroke-width:1.2;stroke-linecap:butt;stroke-linejoin:miter;stroke:rgb(0%,0%,0%);stroke-opacity:1;stroke-miterlimit:10;" d="M 208.75 133.359375 L 211.496094 117.195312 "/>
<path style="fill:none;stroke-width:1.2;stroke-linecap:butt;stroke-linejoin:miter;stroke:rgb(0%,80%,0%);stroke-opacity:1;stroke-miterlimit:10;" d="M 211.496094 117.195312 L 214.246094 101.027344 "/>
<path style="fill:none;stroke-width:1.2;stroke-linecap:butt;stroke-linejoin:miter;stroke:rgb(0%,0%,0%);stroke-opacity:1;stroke-miterlimit:10;" d="M 234 154.285156 L 228.503906 186.617188 "/>
<path style="fill:none;stroke-width:1.2;stroke-linecap:butt;stroke-linejoin:miter;stroke:rgb(0%,0%,0%);stroke-opacity:1;stroke-miterlimit:10;" d="M 234 154.285156 L 249.375 148.582031 "/>
<path style="fill:none;stroke-width:1.2;stroke-linecap:butt;stroke-linejoin:miter;stroke:rgb(0%,0%,100%);stroke-opacity:1;stroke-miterlimit:10;" d="M 249.375 148.582031 L 264.75 142.878906 "/>
<path style="fill:none;stroke-width:1.2;stroke-linecap:butt;stroke-linejoin:miter;stroke:rgb(0%,0%,0%);stroke-opacity:1;stroke-miterlimit:10;" d="M 228.503906 186.617188 L 197.757812 198.023438 "/>
<path style="fill:none;stroke-width:1.2;stroke-linecap:butt;stroke-linejoin:miter;stroke:rgb(0%,0%,0%);stroke-opacity:1;stroke-miterlimit:10;" d="M 222.746094 180.523438 L 198.148438 189.648438 "/>
<path style="fill:none;stroke-width:1.2;stroke-linecap:butt;stroke-linejoin:miter;stroke:rgb(0%,0%,0%);stroke-opacity:1;stroke-miterlimit:10;" d="M 228.503906 186.617188 L 241.132812 197.082031 "/>
<path style="fill:none;stroke-width:1.2;stroke-linecap:butt;stroke-linejoin:miter;stroke:rgb(0%,80%,0%);stroke-opacity:1;stroke-miterlimit:10;" d="M 241.132812 197.082031 L 253.757812 207.542969 "/>
<path style=" stroke:none;fill-rule:nonzero;fill:rgb(100%,100%,100%);fill-opacity:1;" d="M 246.757812 199.542969 L 260.757812 199.542969 L 260.757812 215.542969 L 246.757812 215.542969 Z M 246.757812 199.542969 "/>
<g style="fill:rgb(0%,80%,0%);fill-opacity:1;">
  <use xlink:href="#glyph0-3" x="246.757812" y="211.918945"/>
  <use xlink:href="#glyph0-4" x="256.064453" y="211.918945"/>
</g>
<path style=" stroke:none;fill-rule:nonzero;fill:rgb(100%,100%,100%);fill-opacity:1;" d="M 250.75 132.878906 L 278.75 132.878906 L 278.75 152.878906 L 250.75 152.878906 Z M 250.75 132.878906 "/>
<g style="fill:rgb(0%,0%,100%);fill-opacity:1;">
  <use xlink:href="#glyph0-1" x="250.75" y="145.254883"/>
  <use xlink:href="#glyph0-2" x="260.719727" y="145.254883"/>
</g>
<g style="fill:rgb(0%,0%,100%);fill-opacity:1;">
  <use xlink:href="#glyph1-1" x="270.742188" y="150.137695"/>
</g>
<path style=" stroke:none;fill-rule:nonzero;fill:rgb(100%,100%,100%);fill-opacity:1;" d="M 207.246094 93.027344 L 221.246094 93.027344 L 221.246094 109.027344 L 207.246094 109.027344 Z M 207.246094 93.027344 "/>
<g style="fill:rgb(0%,80%,0%);fill-opacity:1;">
  <use xlink:href="#glyph0-3" x="207.246094" y="105.40332"/>
  <use xlink:href="#glyph0-4" x="216.552734" y="105.40332"/>
</g>
<path style=" stroke:none;fill-rule:nonzero;fill:rgb(100%,100%,100%);fill-opacity:1;" d="M 126.257812 212.835938 L 147.257812 212.835938 L 147.257812 228.835938 L 126.257812 228.835938 Z M 126.257812 212.835938 "/>
<g style="fill:rgb(100%,0%,0%);fill-opacity:1;">
  <use xlink:href="#glyph0-2" x="126.257812" y="225.211914"/>
  <use xlink:href="#glyph0-5" x="136.280273" y="225.211914"/>
</g>
<path style=" stroke:none;fill-rule:nonzero;fill:rgb(100%,100%,100%);fill-opacity:1;" d="M 143.839844 71.164062 L 167.839844 71.164062 L 167.839844 87.164062 L 143.839844 87.164062 Z M 143.839844 71.164062 "/>
<g style="fill:rgb(0%,80%,0%);fill-opacity:1;">
  <use xlink:href="#glyph0-3" x="143.839844" y="83.540039"/>
  <use xlink:href="#glyph0-4" x="153.146484" y="83.540039"/>
  <use xlink:href="#glyph0-2" x="156.849609" y="83.540039"/>
</g>
</g>
</svg>

<svg xmlns="http://www.w3.org/2000/svg" xmlns:xlink="http://www.w3.org/1999/xlink" width="300pt" height="300pt" viewBox="0 0 300 300"><defs><symbol overflow="visible"><path d="M.64 2.297v-11.47h6.5v11.47zm.735-.72h5.047V-8.436H1.375zm0 0"/></symbol><symbol overflow="visible" id="a"><path d="M1.28-9.484H3l4.203 7.937v-7.937h1.25V0H6.72L2.515-7.922V0H1.28zm0 0"/></symbol><symbol overflow="visible" id="b"><path d="M1.28-9.484h1.282v3.89H7.22v-3.89H8.5V0H7.22v-4.516H2.562V0H1.28zm0 0"/></symbol><symbol overflow="visible" id="c"><path d="M8.375-8.75v1.36c-.438-.407-.902-.708-1.39-.907-.48-.195-.997-.297-1.548-.297-1.085 0-1.917.336-2.5 1-.574.657-.86 1.61-.86 2.86 0 1.25.286 2.21.86 2.875.583.657 1.415.985 2.5.985.55 0 1.067-.098 1.547-.297.49-.195.954-.492 1.39-.89v1.328c-.448.312-.92.546-1.42.703-.5.143-1.032.217-1.595.217-1.438 0-2.57-.437-3.39-1.312C1.144-2.008.733-3.21.733-4.735c0-1.52.41-2.718 1.235-3.593.82-.883 1.952-1.328 3.39-1.328.562 0 1.093.078 1.593.234.508.15.984.37 1.422.672zm0 0"/></symbol><symbol overflow="visible" id="d"><path d="M1.22-9.875h1.17V0H1.22zm0 0"/></symbol><symbol overflow="visible" id="f"><path d="M5.125-8.61c-.938 0-1.684.352-2.234 1.047-.542.688-.812 1.633-.812 2.83 0 1.198.27 2.147.813 2.842.55.687 1.297 1.03 2.235 1.03.926 0 1.66-.343 2.203-1.03.55-.696.828-1.645.828-2.844 0-1.196-.277-2.14-.828-2.829-.543-.695-1.277-1.046-2.203-1.046zm0-1.046c1.32 0 2.38.45 3.172 1.344.8.898 1.203 2.09 1.203 3.578 0 1.5-.402 2.7-1.203 3.593C7.504-.255 6.445.186 5.125.186c-1.336 0-2.402-.44-3.203-1.328C1.13-2.036.734-3.235.734-4.735c0-1.49.395-2.68 1.188-3.579.8-.894 1.867-1.343 3.203-1.343zm0 0"/></symbol><symbol overflow="visible"><path d="M.547 1.938V-7.75h5.5v9.688zm.625-.61h4.266v-8.47H1.171zm0 0"/></symbol><symbol overflow="visible" id="e"><path d="M2.11-.906h3.78V0H.814v-.906c.406-.426.96-1 1.67-1.72.72-.718 1.165-1.18 1.345-1.39.344-.394.582-.726.72-1 .143-.27.218-.535.218-.796 0-.426-.153-.77-.454-1.032-.292-.27-.683-.406-1.17-.406-.337 0-.697.063-1.08.188-.374.117-.777.292-1.203.53v-1.093c.437-.176.843-.313 1.218-.406.383-.095.735-.142 1.047-.142.832 0 1.492.21 1.984.625.5.418.75.977.75 1.672 0 .336-.063.648-.188.938-.125.292-.352.64-.672 1.046-.094.105-.383.406-.86.906L2.11-.906zm0 0"/></symbol></defs><g><path fill="#fff" d="M0 0h300v300H0z"/><path d="M39.578 183.313l20.926-25.254M60.504 158.06l20.926-25.255M60.504 158.06L35.25 137.132M60.504 158.06l12.625 10.463" stroke-width="1.2" stroke="#000" stroke-miterlimit="10" fill="none"/><path d="M73.13 168.523l12.624 10.46M85.754 178.984l15.375-5.703" stroke-width="1.2" stroke="#00f" stroke-miterlimit="10" fill="none"/><path d="M101.13 173.28l15.374-5.702" stroke-width="1.2" stroke="#000" stroke-miterlimit="10" fill="none"/><path d="M75.754 170.984h20v16h-20zm0 0" fill="#fff"/><g fill="#00f"><use xlink:href="#a" x="75.754" y="183.36"/><use xlink:href="#b" x="85.724" y="183.36"/></g><path d="M116.504 167.578l25.25 20.926M141.754 188.504l30.75-11.406M141.754 188.504l-2.746 16.168" stroke-width="1.2" stroke="#000" stroke-miterlimit="10" fill="none"/><path d="M139.008 204.672l-2.75 16.164" stroke-width="1.2" stroke="#f00" stroke-miterlimit="10" fill="none"/><path d="M172.504 177.098L178 144.766M180.66 175.156l4.4-25.863M197.758 198.023l-25.254-20.925M178 144.766l30.75-11.407M208.75 133.36L234 154.284M206.352 141.395l20.2 16.738M208.75 133.36l2.746-16.165" stroke-width="1.2" stroke="#000" stroke-miterlimit="10" fill="none"/><path d="M211.496 117.195l2.75-16.168" stroke-width="1.2" stroke="#0c0" stroke-miterlimit="10" fill="none"/><path d="M234 154.285l-5.496 32.332M234 154.285l15.375-5.703" stroke-width="1.2" stroke="#000" stroke-miterlimit="10" fill="none"/><path d="M249.375 148.582l15.375-5.703" stroke-width="1.2" stroke="#00f" stroke-miterlimit="10" fill="none"/><path d="M228.504 186.617l-30.746 11.406M222.746 180.523l-24.598 9.125M228.504 186.617l12.63 10.465" stroke-width="1.2" stroke="#000" stroke-miterlimit="10" fill="none"/><path d="M241.133 197.082l12.625 10.46" stroke-width="1.2" stroke="#0c0" stroke-miterlimit="10" fill="none"/><path d="M246.758 199.543h14v16h-14zm0 0" fill="#fff"/><g fill="#0c0"><use xlink:href="#c" x="246.758" y="211.919"/><use xlink:href="#d" x="256.064" y="211.919"/></g><path d="M250.75 132.88h28v20h-28zm0 0" fill="#fff"/><g fill="#00f"><use xlink:href="#a" x="250.75" y="145.255"/><use xlink:href="#b" x="260.72" y="145.255"/></g><use xlink:href="#e" x="270.742" y="150.138" fill="#00f"/><path d="M207.246 93.027h14v16h-14zm0 0" fill="#fff"/><g fill="#0c0"><use xlink:href="#c" x="207.246" y="105.403"/><use xlink:href="#d" x="216.553" y="105.403"/></g><path d="M126.258 212.836h21v16h-21zm0 0" fill="#fff"/><g fill="#f00"><use xlink:href="#b" x="126.258" y="225.212"/><use xlink:href="#f" x="136.28" y="225.212"/></g><path d="M143.84 71.164h24v16h-24zm0 0" fill="#fff"/><g fill="#0c0"><use xlink:href="#c" x="143.84" y="83.54"/><use xlink:href="#d" x="153.146" y="83.54"/><use xlink:href="#b" x="156.85" y="83.54"/></g></g></svg>
